icons/LinkDiagonal.svg

<svg width="24" height="24" viewBox="0 0 24 24" fill="none" xmlns="http://www.w3.org/2000/svg">
<path fill-rule="evenodd" clip-rule="evenodd" d="M11.0303,7.03037c-0.2929,0.29289 -0.7677,0.29289 -1.06062,0c-0.2929,-0.29289 -0.2929,-0.76777 0,-1.06066l1.00002,-1c2.2259,-2.22589 5.8347,-2.22589 8.0606,0c2.2259,2.22589 2.2259,5.83479 0,8.06069l-1,1c-0.2929,0.2929 -0.7677,0.2929 -1.0606,0c-0.2929,-0.2929 -0.2929,-0.7678 0,-1.0607l1,-1c1.6401,-1.6401 1.6401,-4.29923 0,-5.93933c-1.6401,-1.6401 -4.2993,-1.6401 -5.9394,0zM15.5303,8.46967c0.2929,0.29289 0.2929,0.76777 0,1.06066l-5.99996,5.99997c-0.29289,0.2929 -0.76777,0.2929 -1.06066,0c-0.29289,-0.2929 -0.29289,-0.7677 0,-1.0606l6.00002,-6.00003c0.2929,-0.29289 0.7677,-0.29289 1.0606,0zM7.03034,9.96967c0.29289,0.29293 0.29289,0.76773 0,1.06063l-1,1c-1.6401,1.6401 -1.6401,4.2993 0,5.9394c1.6401,1.6401 4.29926,1.6401 5.93936,0l1,-1c0.2929,-0.2929 0.7677,-0.2929 1.0606,0c0.2929,0.2929 0.2929,0.7677 0,1.0606l-1,1c-2.2258,2.2259 -5.83473,2.2259 -8.06062,0c-2.22589,-2.2259 -2.22589,-5.8347 0,-8.0606l1,-1.00003c0.29289,-0.29289 0.76777,-0.29289 1.06066,0z" fill="#002B51"/>
</svg>

<svg width="24" height="24" viewBox="0 0 24 24" fill="none" xmlns="http://www.w3.org/2000/svg">
<path fill-rule="evenodd" clip-rule="evenodd" d="M12.0303 6.03037C13.6704 4.39027 16.3296 4.39027 17.9697 6.03037C19.6098 7.67047 19.6098 10.3296 17.9697 11.9697L16.9697 12.9697C16.6768 13.2626 16.6768 13.7375 16.9697 14.0304C17.2626 14.3233 17.7374 14.3233 18.0303 14.0304L19.0303 13.0304C21.2562 10.8045 21.2562 7.1956 19.0303 4.96971C16.8044 2.74382 13.1956 2.74382 10.9697 4.96971L9.96968 5.96971C9.67678 6.2626 9.67678 6.73748 9.96968 7.03037C10.2626 7.32326 10.7374 7.32326 11.0303 7.03037L12.0303 6.03037ZM15.5303 8.46967C15.8232 8.76256 15.8232 9.23744 15.5303 9.53033L9.53034 15.5303C9.23745 15.8232 8.76257 15.8232 8.46968 15.5303C8.17679 15.2374 8.17679 14.7626 8.46968 14.4697L14.4697 8.46967C14.7626 8.17678 15.2374 8.17678 15.5303 8.46967ZM7.03034 9.96967C7.32323 10.2626 7.32323 10.7374 7.03034 11.0303L6.03034 12.0303C4.39024 13.6704 4.39024 16.3296 6.03034 17.9697C7.67044 19.6098 10.3296 19.6098 11.9697 17.9697L12.9697 16.9697C13.2626 16.6768 13.7374 16.6768 14.0303 16.9697C14.3232 17.2626 14.3232 17.7374 14.0303 18.0303L13.0303 19.0303C10.8045 21.2562 7.19557 21.2562 4.96968 19.0303C2.74379 16.8044 2.74379 13.1956 4.96968 10.9697L5.96968 9.96967C6.26257 9.67678 6.73745 9.67678 7.03034 9.96967Z" fill="#002B51"/>
</svg>
